/* XPM */
static char *f7c0f2af3dc34b61f4277d75721822a4R5r0fhrJrQjXiWJn[] = {
/* columns rows colors chars-per-pixel */
"64 64 35 1 ",
"  c #D1C5A5",
". c #CABD9B",
"X c #D6CBAC",
"o c #DCD2B5",
"O c #CDC19F",
"+ c #E5DBBF",
"@ c #C7BA99",
"# c #C4B897",
"$ c #BDB091",
"% c #BAAD8E",
"& c #BFB392",
"* c #B4A789",
"= c #C2B594",
"- c #C6C2BF",
"; c #7A3935",
": c #783733",
"> c #996C66",
", c #7D3C31",
"< c #7F3E33",
"1 c #7C392E",
"2 c #9E746D",
"3 c #A27B75",
"4 c #7C3D37",
"5 c #763531",
"6 c #855047",
"7 c #81443D",
"8 c #8D5A54",
"9 c #94645E",
"0 c #A7827C",
"q c #B3958F",
"w c #AD8B85",
"e c #CAC6C3",
"r c #D7D4D0",
"t c #CFCCC9",
"y c white",
/* pixels */
" . XXXo  XX   oo...XoO   +X.X @OOXXXO XXo  XXO. XXXX  OO# O.X oX",
"Xo++ooo+o++ooo+@  ++..oX+X .oO$.XXXo+X+X.X# %X#OXOXooo  o.@Xo+o+",
"oooOX@+Xo+XXo @XoXX.@XO@.Oo+ .$++#  &o+@+%## *XXX..oOoo++@ooOXXX",
" X.  + OXX++.XooXXOX X$oooXoo o+XXoo + oXOooX +X@$X# oo #+.#@X@.",
"o o. O @ oXo+++Xo o +OoXO XO Ooo X  +=O@ Xo . +=X+o=+o.+o+&+o. X",
"+oo+o+ ooX+o+ ooX+++++++oo oo++oooooX&X XXoo+ooo++X++X+o+-++oo++",
";:::>,,,,<1,21,1,,<<3<,<<<112::4567:86;8;:::>88;;::59:;:;4::97:;",
"5:5:0,<<1,1,8,7,,,,1q,,<1,,,9:;774::2;;;:5::36:;::::>:;::55:9:55",
"::::2;,<<<<,97<<<,<<3,,,11,<9;:5:::;8;:::;::95:55:;:95:7;5;:>5::",
"230www303>q0992>02>833>20ww239998676602889>989>6q09939092w9>2>32",
"2;5::::50;,111<<>6<,<,,<2<,,,<,<6:;5:5:59865:::585;:;;:;w::;4:;;",
"0;:::5::071<<,<,9<,,<<<,0<<<,,1,>;::;::;24:;5:::>:;;;;:;0;:;;:;:",
"w:::;:4;3,,,,<<<>,<<6<,<2111<1<;3::;:;4;>87;;:5:8::::;;;9:::::;:",
"302330q0092w39203>2>9>203238892>2>2>93>9992828888293>>>2>8286999",
";:;:2,,1<,1,9,,,<<,72,<<<,,,9:::55:;3;;;;::;35:;::5:8:5:;7:59::;",
"::::3,<,<1<,2<,<,,<<2,1,,<<<355::::52;:;::;;264;5;::65:;:5::8:::",
"::;:w,<,,<,,9,,<1111>11<1,,,9:;:::;;9::;:;;:378:;;:;>::4:;4;8;::",
"2w0ww398932>>22>w>>322>2>932>>989238893233>>999>9>>88888>>>988>3",
"3:::5:::8,;4<<,<><<,<<,,9<<,<<,<9;:5;;:;>;:;::5:3:5:::4:3::5:5:;",
"2;5::;5:91<,,,,<2<,<<1,,>,,<,,<<9:;;::;:9;::55::>55;::;:0:5;:5::",
"2:;;;5;:2;<,7<<13,<,,<1<3<<,<<,48445;:::>:;5:5;:>:;:::::2:4;5:::",
"2333203>9>>990099>232032>9933>9>9>2>29>9898>8>29>299>999289>82>0",
"5;5:0<1,<<<,9171,11<2<,1<,1<>::5:;5;2:::;::;8;;;;::;8:;;;:4:07::",
":;5:q,,,,,<12,1,17,<8,,<,,<<>;7;5;:;9;:;;5;;8;::;:;:9:::;:;:2;7;",
";::;3,<<,,1,>,7,,<,,9<<<,1,,27;:;::58:;:;:4:8::;;:::6:::;;:5>::;",
"33220>>8>223ww03>96889>09999>9222>>86698689>3220>8686>>2>392>223",
"2;:;45::><<,<,,,3,,,,<7,><,,;,,42;:5::;:8;::4:;:8966;::;24;:::;:",
"3:5:::::9<1<,,,,3<<,<,1<>,,,<<<<>:;::;559;:;44:;8867:;::0:5;;;7:",
"2::;::;:2<<<<<<13,<,<,<<><,;,1,:9:;:::5;9:5;;;4:687;;;5;2;;;4555",
">>29233www2320899999288>880203>>>9888>299888988869>2>>393>>09990",
":5::><<,<,1,3<<<,<1<3,11,,<<9;;:;:;68;:45;::9::;::;:8:;5;:::2:::",
";:;;2<,,,1<<2,11<1,,>,1,1<<,9;55;5::9:574:;;8:;5;:;:>;5;;:;:>;::",
":5:50,1,<<<131,,,1<121,,,1,,9:;;;:76>5;;::::9;:;;:::255;:55:3;::",
">23ww30ww32w0022>>2332>9>098>232>323323>>>998>9>99982>2>>222>>>2",
"24:::54;0<<<<<,<311,,,,1>1<1,<<<3,<686<,8;;::;;;>88;;4:;2;;:::;:",
"w;:4;;;:3<,<,,<<3,<,,<,,2,,,7,<,3,<<<,1<8:5::::5>84:::5:2;::;::;",
"w::;:;4;21,,,7,<><<,<,,<w,,11,1<><,,1,<,8;:55:::>:7;;:::2::;;:;:",
"3>>>8>200030002>2>882333030328899>9>>3>>88>9>>3w>2202>899>2>8093",
";;:;>,<<,<,10,,1<,<,9<<1<,1,>,,,<,,<>5;::4;:85:7:;;595;;:;;:05;4",
"::;:37,,,,,<2,,,1<,<9,1,11,<0,,,1<<<0;;:::4:8::5;:::9:;::::53;:;",
";:540,,1,,<,2<,,,,<,9,<,,<<131<11,1<3;;:5:::9;:4;::;8;555:;505::",
">3330w29903023023>2999>22333029032>>233232w8999>399669w33>230>3w",
"0:::::::01,,,,,,w1,1<1,1>,,,1,,<>,,,,1,,2:::;;::986;;45;05:::;4;",
"0:::5::;0<,,,,,<><<<<,<,w<,<,<,,>,,,66713:;:;;:;>6:;5:5:35;:;;;:",
"35;::4:;07,,,1<,0<,,,<,<3<<,<<<,91,<776;2:::::::>96;::;;9;;:;;;:",
"30q33ww0w32299>30032w3ww00www02299993>32>23209>>>w>>9923>>090023",
":;55q,,,<,<<>,171,,,3,,1,1,10,<,,,,,25;:5::52:5::;;:0:::4;;;3:;;",
"5;::q1<<,,,<2,<1,<1<0<,,<<,,0,1,,<<<w7::;;5:>:::;;;;w;;;4:4;9;;:",
"4::;q7<,,<,13<<,<,,<w,<<,,1,0,<,<,<7w:;4:;;;>5:5;:55>::::;:40;;:",
"0q0ww2wwwwqww3032>32003ww0ww0>99>0w0>3200w>>98>22032322>>9>w023w",
"w:;;:;:13,1<,,<<3<,<,,7,0,<,,,<,0:;::::53;;;:4;;3:;::;:;274:;5;:",
"w7;;:::<3<1<7,<,>,,<,<,,q<,<,<<<w:;:;:::0;;::;::>;;:;5:52::::;;;",
"0;:;;;4<w,,,,,,,0<,<,<<,9,,,1,17>:::;:;;w;;5;5549;::5::;>;;:;;5;",
"93qw000wqq20>0003339202>0223>2>2>0wwww3q0300w3232>3>w>wq092>3992",
";;;;3,1,<,,<>,<<7,,,2<1,,1,<2<,<,1,<q;;5:55;3:;;;;;;0;;::::;q:;;",
"::;:3,,,<1,<0<,,<1,<2,<,,,,<>,,,,<,,0;5;:54:9:;:::;:w:::::;:w;:;",
":;::9,,,<1<<0,7,1,,,>,,,,,<<>,7,,11,05:;:::5955:;:::q:55:55:>:::",
"ww0q02qq0wq0w200w0w03q000wwqww0qqww03233322>>39920w23323q0w03wqw",
"w;::5:::w,,<<<,<w,,,<<<,0,,<,,61q;;;:;:;3;4;;;5;0;::;;::37:;4;;;",
"w:5:::55q,,,117,31,<<,,,2,<,<,,1q4;:4:;:05:4;;;:w5:::;:43;;;::::",
"w5:;:::5>71<,<<13,,,1,,,2,,,<,,<q65::::;3:4;;:::0:;::;;:3;:;:;;:",
"XXe++rroXX  o+o@o+ ooo++++oro+++otor++XXoo ++roo+ooo+Xro++++o+oo",
"#oX+o +. oXo+&X+o=XooX+X@@OX@ X@@O+o+  o# oo#%# +=oOX+.O=#oo+X..",
"XOXXXXX XX X .+o#X.Xo X .+     #XXXXO O o XX . oOXXXOX# #XX.X@o "
};
