/* XPM */
static char *_a6ebeb880dd4729f5a29ae67efb3956uW5tWlSy2P4FqToa[] = {
/* columns rows colors chars-per-pixel */
"64 64 92 1 ",
"  c #7D6642",
". c #7E6745",
"X c #826A45",
"o c #6D5A3F",
"O c #705C41",
"+ c #856D4A",
"@ c #7B6546",
"# c #69563B",
"$ c #756042",
"% c #796344",
"& c #826A4A",
"* c #7A633F",
"= c #7F663D",
"- c #816741",
"; c #786242",
": c #77613E",
"> c #836B44",
", c #7B6442",
"< c #7E694B",
"1 c #735E41",
"2 c #735D3A",
"3 c #806946",
"4 c #836A42",
"5 c #7F6842",
"6 c #886F49",
"7 c #7E6749",
"8 c #7D6540",
"9 c #765F3C",
"0 c #816942",
"q c #886F46",
"w c #846C48",
"e c #856C44",
"r c #856D45",
"t c #8C734A",
"y c #876F4C",
"u c #876E45",
"i c #886D45",
"p c #8E764D",
"a c #89714A",
"s c #8D7344",
"d c #8B7146",
"f c #836B41",
"g c #8A7247",
"h c #887146",
"j c #7A6339",
"k c #81683D",
"l c #8A7143",
"z c #886D41",
"x c #91774B",
"c c #8B6F42",
"v c #8D7243",
"b c #846E4E",
"n c #856C40",
"m c #92784B",
"M c #876E41",
"N c #876C40",
"B c #886F43",
"V c #8D754A",
"C c #856B3F",
"Z c #856D41",
"A c #8B7245",
"S c #937849",
"D c #8D744A",
"F c #8A734D",
"G c #8F7344",
"H c #907649",
"J c #977B4C",
"K c #957A4C",
"L c #8D7446",
"P c #8C7346",
"I c #9B7F50",
"U c #8A6E41",
"Y c #8F7444",
"T c #8F7549",
"R c #81693E",
"E c #8F7546",
"W c #846A3E",
"Q c #6E5836",
"! c #9E8151",
"~ c #94794C",
"^ c #927747",
"/ c #8D7142",
"( c #977C4F",
") c #927545",
"_ c #967949",
"` c #7D653B",
"' c #9A7D4D",
"] c #92794E",
"[ c #987D51",
"{ c #A18454",
"} c #957747",
"| c white",
/* pixels */
" .XoO+@#$#%@%$$o%&@.$+..*=-$;.:>;%$ ,,$%<.$o,%@11.O$<,o2*3,;4*:5",
"6$7#;81#$;;3O$.1$49#o49,38$,$00q,7%$.,.@O:w;+1$;$...$2:*3@@.qe$1",
"0$+<@31;;X r$# 1.0*o4-5-- ,w ,t0,1O2;yu**i.8:$X;%+&o1:3py%$+&;%5",
"$.,;X*$81 +X3y@&4e%5ae,q;%&$ .e4$;*0es5d+py.,%.$$+%o1<yy81O%if:X",
"&#8-6.o3;.+g4;XX+80&+X.@7O$@1$,3.3h  -6&;:q**wO$@w;o$+5:1$7X5+a<",
"1O,, ;%.@3 t>.e>p ,$;e*8$o;2%$.%$Oqq.33Xo4jk48;$wu:#1 iX.$;*>X$&",
"%,:3X.1 f8,r+% ue..O$#3leX.Xz,*4;3rgx$;>fex %X$;%,;$&1**511>9oo8",
"1.X,c1%axa.>*#1e*:>;$;*hru+640>4,;wvj;q49iu@e5$ooo@@oi+8;3. %$o;",
"5b<7=O3>5>we *1>y7@>a-=%r-o;$ia@o;Xn48: &bty3:3@$%pyg%bpm,.$-& o",
"-o@%51*1MN*BX*0>p<.aue.wV  6 X3;;i8c;3a%tX05aaw#o;:=wX5y.0:;X$.6",
".@@%*:89nMhhuf4qC844g>utZAwhSi,. 4wa 0Dq4=cC=D*13t59*;2 e-.@.*,.",
"* &7$%%%5=4 OwDSBeiqki4ee5+Du*:,, F.;*GHuJDAcDu%pa.K,:5C-$<@152 ",
".:i4@%$,e>5%O>tJ=qL45r58,8uq5O@,au1$wFhlcMSD8:=5Pc=>:>66w.731$ 3",
"8=4*3&30Zwa52jIpq>Me33r> *oUeo@&>*,@.w5Mz4Yd8e gU DigT6.+FX8$5e3",
":wa>,>Dr@rR8iqEAPexg$.Va+X6WR%;NW*+8Q:H!D!KBDa==H~p jq@.Aq8>%;X=",
"%7X,>qu>w.exbpakkz5-9NB>tt0q 3yhgpgf=z!^JJfe>tP0~Jq**i-jdNee..4u",
";$48nqgEn8xawXh0gKLewK4-:2*f4 ,8PHA;aIcvYBquw55gBG/u6taXt(0e3@$a",
".04C-;$54qVp%pqrD)4..rt3@.+eq,%tL48-d_HEjWcu4.RpEcaa.,i0Hxq(y%65",
">0rDa%.rx!H`~e`zlC4 e'K]w.7w6&4>t;; SlBPvc)P45u/_z;3@l-Qv`SzAXeD",
"`*..0$$#4cC*,MkH'le@3uhLc6r> 3cC8>OpxHHdLSEww:`Upa ,6a3:9Tzji.gP",
"Fp@-898fkXy6*TaJx>8oOeNvt5`08d)W4rHAJAkYsn5.@.Pqx*eXt>Q;&qCZ6.Hu",
"q+6r%Xuw.rt5jcF]PZR9 guiRkWGErml~~q)Un_Jf]a,.0 e`i,,Q8 77,AX& -f",
"/C=;@X4eq-oCAGGRHKPwxtHDxHx)ZhD>ueTIBRPLrJk5.;4MrX 1:00ww.5]+ukc",
"[H,18-*80 %>pH0lHAn/cR^_Ag.qxE05,dE)BnBE)RR0,0J5tF$7<FP9iwDA>=YL",
"Sq$1.& e5566A/HmnH]P/=v^l0,agq0rVe>lWnsJhPfww88Le18 ;65MzxT`)RSu",
"Mz*.;@rX~+w04Ac=UHtpqgsCu584SBSHXr^^TG`sgJnDFtetX315 8u(Vc5d/Yr(",
"HIP,*kRNl0 9kgelsnRha[VtvU0Pl=lCN/ZnVnNMSAZMq6Z=41.r]XFD kda>Xgx",
"x{H5P)=a8Q:unsTVK_Uj4vPMvz_n=/vnYJqgLSvM(^nSu=`U5wuUcA=5P4=d..e=",
"^S>~Dutpr  J>^BU~!xMkYfH~uKnm(dc_lgt'nV!vkCq>D4i>HxRlj:=nP>]0*iT",
"sIzvWlt@b<4WLSsMlzvZSPn^KHLAlzsCZsvlKp]uqgf`U>tTdHw+FHrde4gmp65>",
"~!TE[L40,6gNvqK~pH'xDeqSvs'ZM)EET^KAPL4EShxmb@*WAqe tDyyqhLW>5q/",
"JKfEnCC:*CLfSHVxBlsZr0 TcclAs)TqSJDuB^gSPdPH0*;iW> :4k5>0Mx4ur4A",
"BHYUkkCf,vLVPl^^z_gvkiqcmEgHEl)Yfc}zkME~HHYN=-qA0u+.u0-ehraguWWc",
"LB/W{HqgtBrPRsvcnSM`8lfHSs^KcZvWvsC^!psYcsMPP=nPYcu D0=40qkEUncK",
"H)nfJ(uw+FZ=cEgtZsn@6tV~JhsW4AxmI4LLm>EMscvkcczPvqgurDi*j9)/iatH",
"AlIEP=qi19MzKxDKLY)y@4lnmnSZV'WzncAWUzHt~EMlEHtDtPa 6Ae0xueh*:XH",
")jz_`kcf*:MsvMCc/)W- BA^^RcYzA5-gtfsYIHvVpTKHd5DTvj5zq Xa(aL,#*v",
"YW`YVT >~qsHEMYvkHs=fT~l^nRMcfM4+qBx]HJs4vmmm*aaVPuTThHwe >qw@Xi",
"zLIAq]r}T>KsknKAB'fATmAzHmmE~ElR0zUlss^Tnv}B=.0rtuSJgMzz-M/jfr(0",
"WlUcjS~^Czv^hEq~^ClYHnlHSR^mhrczCYMcvYLqmSvBfe3C4ndsn4xqg>jlx~vU",
"K=W)/JxeNMGqDJq/)CHYRnRKKs^W`NGlEsB~LADfx(A=v9,r9RkCrVyurF+ezvRY",
"ZaF8zZWWJ~]HfUGN_EnZYKmdHYls`s^wJHgmH(nzvAun4<.6wzkCDZ=Uz4tgz`sK",
"Er0qKx)YDFBZUvN}{TZL'Smns4W/~~D~mmH_zGEnzUHx6w>0Vt4WN,=z=RiHLz_n",
"DH-uDLD~IHRvT!!'GZxIKLzWUYT(SZvWrZ^CCluHh0gdq0cuwwudh3tlnmxBH!HA",
"sxyFeMAsBBhIs=sTZJgEsvN}YYAPuL^4WvncPmut+tHu0 6raAdabph4L^lkZH~J",
"YH03t'qhkjBTn`jjkcrPWjWWHHNeHH]HRvEP_dqN=qu*u-*4qrh54X=mId=GkMlf",
"mlA~vkZxlRCHBT5UEcRE'mJnEhed_GZxSmK(Du=qq.;;4,@=j-5.:0 DV>+wm!SK",
"mZYkskvvH5zGTDh>pTCnP{p[KBB^snlmIrZuDHu,3,.3455r487@.w0`-u6e*dlC",
"lsRkf[BRqyt>u>udg]m^qeJXeH__fCEJRMckU'hO9;0i*ah3Xa6.&y5 DD@0 -WW",
"n_W_nJam~6]FaWRjMAJ~8icuz'n=HH^c)MYl)vE,ucUshABuy6 u*8aVrzf45acC",
"v~rgNUEBE0-1;Bra!l)486>xvnk^YWvS)vtKKHgPEPxeeAL-0qL,8lw0>0z4Muml",
"EnNCYzR_4M-; eV[M*RA66~5H~]FxfhKTDHHphAUcGd50']nCcURgYZ.6DBRSx]]",
"WsW=eDDUf[.&+wM)crxqDqUnJgup[ptSJH1Bfm[A4=nJKYHh)GBZqIpHRklDTGk_",
"EaDpF~'thqr@$nPTxfKI0ll^GBenzcMczk`WE4kLhzxxvkBumDrF(T4LCEYx'UUY",
"ADF[MsnMC}U84H}k=AYR)E))U`CGcCE(Ef^ap;-)lxKMMlxSamCP!l``RB(sUCME",
"K~uW>VP)n)vR=~HzUHEYK_0HnYuSzNEvqD+xz;wqM^}jR^)lMcGc/A=q>TTR`BKP",
"sj0hVE'DDLD(Te}EC/SEEBSARzx[AHlUe80f$o>a(KKPvs^GA/^Jl=a.iDA0V~P4",
"n)SPW_MaT_}T~dBT_IqGzkMUqm)kUJ(xPt5F3 tTtK[gZL_^nELHDDu.8q.Fp~Hq",
"x~BRv}EL_zC=WJCT^)knzr'BrKv^ZG=c00Xti*cNz~CWm^vvE>VKmgewre3,eB>x",
")k`AKHMlKKV/=Y0~^RHSZSZvYEJDhLljq8443eR=DB=YrxVngPTHBfU48r49:vMk",
"vBZHP)ZWHHgH]^ImBh{KmsRlTEsGHh~Jq>+@8HgV~'HMI>}Ls)/UzjZ4-ci0VAvW",
"VFHWU)nl_vfHFTksKqmmeqKHxhMrhABe5;5r;kt(R=}sr_skY^zR}lx30h68sM`c",
"AlmMWA~dHRBBMSZAMMMA)vcvsxmE)NWBL00P0eB4Cv~L4zZ_YYC=WVX+F+3:+w5m",
"CnNWDxLv)ZC/CcRYS)ngtSvnRR)UUfgSce *lPDc)YRkCUJBBcZPg~a1;@o%1;ts"
};
