/* XPM */
static char *_e02c7df693f41ed9f2eeadf017d3206SXuSjUEZ8LkQ9wvC[] = {
/* columns rows colors chars-per-pixel */
"64 64 52 1 ",
"  c #866D44",
". c #826B46",
"X c #886F44",
"o c #846A3F",
"O c #967A4D",
"+ c #8F764A",
"@ c #796341",
"# c #866E4A",
"$ c #8E7345",
"% c #92784C",
"& c #856C41",
"* c #80673C",
"= c #997D4E",
"- c #897146",
"; c #7D6643",
": c #755F3E",
"> c #816940",
", c #8C7243",
"< c #8B6F41",
"1 c #907545",
"2 c #927747",
"3 c #8C7449",
"4 c #886D40",
"5 c #957949",
"6 c #7D633A",
"7 c #9D8051",
"8 c #A3865A",
"9 c #6C5A3B",
"0 c #685143",
"q c #6C5446",
"w c #6E4121",
"e c #613421",
"r c #653E25",
"t c #5B4134",
"y c #593223",
"u c #663420",
"i c #6E3D29",
"p c #74472D",
"a c #663723",
"s c #64311C",
"d c #5F2D1A",
"f c #6B3925",
"g c #60301C",
"h c #594033",
"j c #855047",
"k c #6A3721",
"l c #5B2A18",
"z c #542818",
"x c #542C20",
"c c #4D291F",
"v c #51392F",
"b c white",
/* pixels */
" .XoXO+@#.$%+&&*X# = -;.;oX #X:>&,& <1--O2<* 32,o2- O @@;X o&*4$",
"O#3.14>@#X&5X-3;>&6**<:; ;.,<1>.>%#.+ %-X>=3+.-1,+3%>66@;X.. ..-",
"$&%%31;& 542$>&;$;;>4<,4; ,=$&% ,o:6.%,oo11o6.=<+%.>@@.3+# %.: 1",
"&%$&1,>&>1=++O -4&>,51&1@.+3X$-,*o*XX >1+=% >X5 >3;:;-3%& - +&>$",
"=o,4=,*$X5+%,-3 -*&%%3-+O $O-X<53#X>>;%+&*16:+.33+>;.2.>o+%+-+73",
"-><5Xo2+-=,O- 1>%&4$$2&,$>$*,21% @#$.-%+&$66 4,+75o*X <X+21o1$ O",
"1Xo5+2&,$<&-O1, -3$,$*11,#>$$441,;.#%.X,,$O .1>21$&$8@:6,o424>*,",
"-3+$5>,O=O-2<* $>o5 11o2-..+,,2$ :.&6-2<*23-51X&o&-2*-.@o1+X X,1",
"<==O,oO1.-51 >XXOO-2=<4,$o:4X5=X>o o<o*1==%+-o2=O-=O=-#+7>+ 1=2*",
",o7O$o<>,<o$$*&+733O1-XOO;;- +1 $1>1o-OXO+  %==>$o6;+,.-# o,% 3O",
"325+&41>,,225,41<o,-+X2=,-@@5$$-$X%=-$O+&>$44O&o25;:&X:oX&1$$X--",
"X1=O-%%  >,1 +55,X, o11,,&.-$<<44X=$&o25X=%$15%$=#@+.;@&&>O3&26,",
"=&51$%% 1X&$o$+O*X,&.+1&o&XX.&5-O2o&%+,,<455&ooX1&@>;&#3-.+$> X%",
"<4,>O5%$13O,6*73.;& -3-, o:<,4=O-o,- 3oX4o15,$>1<;# +O3 #-$>&$12",
"*%+1,$O--%X4225-..%2 $%%+3%&&211&oO,:6%737O1=+>*2+->*5..X.;X,,$&",
"-%-; 1$ %X,=%7+;6&>oo<,X55 2&+71$O1,><72OO&,1%1>%O ;*2&* ;>$$1<1",
".&<:>2124>=++, ; %+,27,4*6>4<21o151o+7,,1X-$2&>--2,$5O%.##:,22>+",
"3X;@;>>o&$%=.%.>-$X 2X%+33O$O1$%5<441O116o$$1Xo%21%O->2X3- 7%-%,",
"$&;#-.2+=75*7.:>4&,45=O7+-OOO%X Oo1,O$X3,<251,-1=1&- 1<:1@5<111O",
"*>;.X;$*<$44&>63=,,+51,1,%-1-314o,$=O22-3523+**,O54&+%-&>O<*1X+1",
"O%.,4*<&;,%%o,XO3 oo4,4$3&*,455&&-O,O,>$,&o-$X..=>5+- *1754,5-5-",
",-%X 3#>;,5$*,-%$ &oX3X&**o12$5-5O$1<&O=o%3&,;9@61 &9*,OO,1 %$44",
"$$,>33X.$46,$$$>2O$3O%+X ;-2&-% - %7X>$$ O>X1:9@ - 6@@<O=+ 7+1o$",
"75&o,$>o<&.-7%o,+,&$,>+2>;@$+1&4,111X&X$X@6>>;#:-O>3.#1*2+51 >11",
"2-o4%% $, %51,1%&1%$,*,1>@ O$, 1= ,,o&$O.;:.->:; &$&:.;,,OO*2o5X",
" &*2  3-=3O$4$,*<13O-3$&;@>45X52--22+$*-;-:.%-;#-2o;:9 7%,.1$1 =",
"#-#o*4o<1$,*>3&,$&o$373#&>>2,*,o4,4&3&&&X;9@-#@;<4-..:#%$o1%$X32",
"#3;;$2o5o:o,4$+3O5<641$4 > 4*<,&1OX-$5,&#;9.,;9;&+$o:@:&14*1111*",
"$.@++-%=%$X= 5<4%7%Xo$o++;3&5=-<5--3=&3=>99>-#:> %O@@9@&<5.=,4$+",
",5>4&$O-+3X&12$4,4, 21 1+. -,4,& ,,,O+%.;;9:$X#-X53#-+31,X3O=+  ",
"5=31=1<,$+2<,XO%++=2+X-1&@X. 111+2O,$1o, @;33 :@X$$;#33%+31&--1$",
"OO>1 4<*4,1&2+32X,$&-$&-;:;X 1+X2O3 X2-2-.;3& @;>  @@; - ,O 3+4,",
"X1$<*>,<o -+3-22451$o$,&#;.$$,1$o<24*41%31-&o4;;>,-@::,11X3+,<4,",
"$X,o82-+-;>$>,,<&2X*o,>3X;.24&,o,$o27+$$<,&$166;-4.@@@41,1o2$,1=",
"11&oO=3+3->*<1-3 $X,O+3+3;&*>-+%7o$3%&14,<,*&&;@. #.;-X>*65$$%+%",
",-=1$*55X*&45%3O$$2% &X>-;,&3=o<<,$o44135,&&X.;:;.#;.XX$=1X+o&35",
"16456*4&*64$,4o<,2&<4,XXX:>X&$o<5+&$$=+,3--#X$::. 6;:;>,O7324641",
"1o*$3,;>+X,+14$,*+$><12>.@@o o,-%-X%%+=,> #;.;#;#  >@:3+2&X$+33,",
"66<::;09.>5,>&O,X=:96o6:66:6$4o**4o&64*6*66q0;o>;:;:99o*64<6o$O6",
"wwwwertryrwuiwwpwasuudsfigippafffwwriwwppprrhpwrerwrrrppjwpwppfw",
"klluseyyddsuafessduslllkfsudzdssuuskuuagfiexylgecxldyiiaeafsdslu",
"gafggyxlffffgdsduuggskkukusslsuufkuffigdgsyydfaaeyxdasdsdgfadluf",
"uegufassafeddsdkikgukkfgsgldkfafkfakdsuddsaiafugaadldsddldskudul",
"audsuukfiulguppiueaifudddsaikgsdeguddgskaguuudueyyyuuuksgffskiuu",
"skiiegussgeislsagfeussdusgeeeuugdsdsufsafkusddkeeyefriuduusdgkff",
"sueeaieelzdadzzzlgyadzddaadefkfkdsuukuedduulkddsaeegsudfiududdgg",
"kgsksldfgxyuufgsudxsfffgueyyusgkkffifexeuuggssfdldygdsgffeaafiff",
"kdglslggaegskfaefaldupiifeyuggskiggeaaeyaeakssguddaaakslduasdasd",
"sullgieluffuaeuuaifueskgyaauddskdddldfeylsdugkuaeiaeafdgfkussddd",
"dudkgfuffaiifddzduifdsssgallakuguduesdeyesdsauskffeeldaasgsueasd",
"sfeuddueudsgssuaigsgdfekddxssdsusdfiiaeeuukessuseaudlsfuussdgekg",
"uldlsdlugsdguufidllsffigukirfgafaakkfeeddsudsiiddggduusskksdkkfi",
"dglleaudyiekiueudukufudgfaefifuukulgdfigdldfiukusegesifkdlsauslu",
"saiiffieeeafgduafgfiggsusegddggddlldsdleegkfulgeaaerikduduskfgds",
"sfiigsgyxeglguuldesduuuudllsdduikgukkddggakdgsuaeagaislldeisdddu",
"iisdgaeyxeuldfkdyauukkgkdsekddssaiakseaeguuzluueddsgduduefkllefa",
"uzdaaueeeeaifeuexduusgksldkiuksdugsddgeeaffusuussgufsdfkuaugffad",
"dukaluyeeukafueeeiesdldgefsldffkukeiaeueeiiaguueduuuaausdueiiffe",
"kkslguuekdlllkgeuulddefsefgugsldgsufudgdyaldkuggeyaffuekugasssek",
"sllufugefiudlsgfulkkdkggssfauuszudgguedxeglsekageeaagddsdegllsgl",
"seduuuddafaaikifgupifudeuussaefiuufegaeeviagieueyegdgzdddgyyfugl",
"fridgkgskueiffdufuffeaiffaseauseuuukgyerxduuekedeeydusiaeeeyasls",
"uufedufaudeegfeaesguksssaffuuddsauukeyyyyufkggekyydldfaiiiayifei",
"ddgdaiaukddsdsdukugafkugddugsgafukuyevyyesdddsfueygaaifeafdfeefu"
};
