/* XPM */
static char *_ebf62670559414c90a8d811e14a8ad95oPcRvrzfwe582JJ[] = {
/* columns rows colors chars-per-pixel */
"64 64 48 1 ",
"  c #6C6A75",
". c #67646E",
"X c #6A6772",
"o c #716D78",
"O c #77747F",
"+ c #75737D",
"@ c #787681",
"# c #726E79",
"$ c #74717B",
"% c #7A7883",
"& c #76747D",
"* c #736F7B",
"= c #64636C",
"- c #6F6E79",
"; c #77757F",
": c #6C6974",
"> c #6E6B76",
", c #5B5B62",
"< c #797782",
"1 c #616069",
"2 c #6E6D77",
"3 c #6F6C77",
"4 c #6C6873",
"5 c #5E5C65",
"6 c #7D7C87",
"7 c #75727D",
"8 c #696670",
"9 c #7B7983",
"0 c #716F79",
"q c #7C7B85",
"w c #7C7A85",
"e c #73727C",
"r c #7E7D88",
"t c #81808B",
"y c #7F7E89",
"u c #65606A",
"i c #807F8A",
"p c #5F5E67",
"a c #82818C",
"s c #83828C",
"d c #84838D",
"f c #6C6C76",
"g c #71717B",
"h c #6D6E78",
"j c #6A6A73",
"k c #696872",
"l c #595760",
"z c white",
/* pixels */
" .XoOo+o@#$+#%&O*=-#o;*$#:>#:;,<*1>o2+<+@;$o*33*$+*$##$o4:o:o44:",
">X4 #>$>@o$*+<$>34O3$@@++ 4*3*,oo5>3o**6<@>3:3:3o> ##7;*>38  34>",
">.>>74$>9o7;+9>*$47 0@$$o4:7>+,%3,:+3$+qw+7;$4> o4 7*+<*o: :7*:#",
"4X o#>$Xq*7#0<*;7X&*+@*w+>39o%1O>5:*o#@6ww@%$7>3X.o:o$w7:#:>eo3+",
":>oO7#O>w6w+*q+%O @7O%<q#3#;>91r35:#%>wq9r+@+6:3+>48+7<+**8$#*#&",
"$oo9O9#3t6rO7q#9%3r9*9%y%*>9>yut#5X$646yrr$@7y>$q$>>7+O$3eO@o3o<",
";$$++<<39y6w>97rq>i%<6<y0$:63tpro5>;@7yr;i:w094+i@ooO7$3>w>r+# 9",
"e%$679wottyw%t+yr#%6qywq<++w+t=q:5*<w<y6y9<r#q %w<wo%OO*+r@y;;X<",
"9w;i#wrotatywa+%woti;w&r9@*r6t1&*p4+rtttityy*tOyt9iow;@;@6@y@9>9",
"6y;i$wy7qsaraa+tr29;*69iwOOtiq8r#p7<qi9iqyqi3i#yriy#q;q@qtqt%r<a",
"yi@t@yysdd6aay%iy7y%9yyt$yraaa0w+.@*9ryw66yq6t;tattqq;6%qi6aw6ra",
"ti@sOittti9twstsrriyaiaa6aayya.r@fq>qsy@wyitai@stitw666*yirarsts",
"aa9t<yri666aqi9syqati%aiittaai0r+>q>y6;%%rytit+aissq%&q+atrsqiad",
"sr%y%aiiastttaattitaitytaisstt-aagt3669+<r6aty@rsdstyrr%iiyaissi",
"aq6t<tassttdsstiy;yt6ryraqt9iteay+a%y6q7@w6yir%9staittr+ytrayits",
"++2e30&2#&e+e++2+2&f*-0-he&+ee-9t+e2 f:.X.80#e8++e+e*e08-e2ee0&&",
"yawt6raiyyraassa6a%iyt6iit6ytwfq6ety69<+;+<rwi@ayastiiw%tdr6taya",
"atsitai9rriiyriaitast6iyyrrwitgyq+6ay9;O e37qt<asaiiytyrqt9a%ttt",
"sa6iay6qq<6t9aaarsiriairi6iira*9t0%yiw@$  :@yiO6tia9itrr6isaaaar",
"s9saadttq9witriqittia6tyrr9raig6te9<90#$#77qtt@6yrrrsaqtr9iya6ai",
"tasisiiy9<%wy@qaaissttiw9ry6yre6yfw70+#*3;q6rr;ryyiytt96wqyartts",
"aatitisy<+;%q%q9qitt6;q9rrqryter6jw<+7>7<&6%+9%66+ytrw@w%wiyttat",
"%iayyi%r%&%@@r966a<9w6q6q69r6y$66fr+#3*O@;9@e9@@<qt6w%@<0qrti6y%",
"taqri996&@;q%9w9+qw+9<%%9e96%9-9< q+O+@7O&$$<9+w66y9<O*&>%3i%9it",
"tiiiairrr@9@7@q9<%;%O9e%<<+w<@jq%:#++&:o@o*$&O%%ww9w$;#X;o*++ita",
"siatsiy6w;%<&6e<6;;;;;@&*;+7<<X9<k@@+$o$$3$7$+7*9<;@<*7oO3%$qidi",
"a6d9t966w%6&q9+9;*>9$o&$<@O@+<:%<:+7<*X*$*&0$;oo*07&<+e;0<O%wyts",
"dtaaqyqww6w9w;6q&>%o#*&$9O$7@+:&<:<+3$:&+o#+e+**$77@*@&@$+&;6ita",
"tstty6yr6q6<66q<7;e*#7O%O<%@*O O*8e37*#$;O;@@@O*#:#$:OO@+*#O96ti",
"itiiiiryiyistq;<@$;o7e@<<%9@%9X0<8 $*#%;+@Oe+<#:*e+o*+7$;+<wqiir",
"tr9taiiiitaa%9@7&$9@<w99%;9w6< ;+.8>3$9;%%@;;eO<&0::: #$+&9<&6ir",
"e$e7-g#e&e+e0f X.--283ff   >X3f9@u1.pk8: 2.  :::XX.1,u. 8.8f:geg",
"aatt6ttytiiytyyiy6wqq<r9ww69%%f%:8@O7+w;;%9@%%w@&;$>X#@;oowqri6a",
"aaaydaaa66;<wryttqw9%qw69y@w6r3<O:w%*;;r;w@+;+@%w&@o$#@@+&wryiit",
"sttytti6r9%+<O6qyqw<;2;%y<6iqq36%1<O@0q+&%;@@@;;<%;2$#e+7+qyitts",
"itqsraati96<o+9w%;O+$*%rq6wrww-%o8;*+O%@6%%%;76%@+;7>3&<;$wtatai",
"asatdttwy6r9&++$+<e$e+@%ytqr9%-<4837+9q%;<9$;+<<@997#*<&3Owqyits",
"taaaairtt9y997$#7&;$777%q<yata$O4.:O%<%w9O<>3;9w<9<7e++e*&e%%ist",
"asysqitiw6q<O737*#@#+7*9qtsiaa2o38+e%9%@#*:4#O9;%O@83$*$3@<yrttt",
"aaityt9rr6wq@<77#:$77w6yaiiqar3+2.2&;6;O# >oO@<<&q&;<$7#&O%9y6wy",
"ar6ttarr6r%q%y&@99e#%6qstttrs9.$&.ww%O8 # @0&@;+9w6O;eo7;83+7rai",
"itaaiiiyr%wr%<@q+we+r%assataia.9w36q6*49>O;<%%@w6+&$4#$O$o3239qi",
"atss6tt66w%O;<%ar%96i%tttyyitt-<$:6%q$>$%9<96%6%%&9<.#e<#+<rtitt",
"ttt@yay6ww%7&q<r;<rq%y9qqtttaih%+=66<89%%%966y<@6y9;#@q<;@@wytra",
"qt@yy9iy&<+99e6i9ryr6<r9yqayit0%$j6<%<6%%;@q%&wqt6O%<+<%@&$waa9a",
"i66y6ri<%9%%726966y6www6qyyw<y-w*8@+qtyqqtw<9yq;eq@@;#&+O;rw6&6r",
"w6ryrityqw9%e$6wi%<%w9%rrrirqqfw$8;9rry6atiiaty@ww9o7#67w%q;9rri",
"j:#0g-0023  =.>2gj :8X=pfe0h:8 3 88:2-e: 00*e-2k#0f1=X.j-f#+-g-0",
"+%6waity6q99&@969@O&%&4@rair6rk#4u$%q6tyatiy@69iiae+q;+w996w9<;6",
"#;+66r9ywww+<7ew9O$@;7o6rtqr%w1=7.O<6i@qt666wq6ttt6q<<ww<@<@$;7%",
"+@&9w6%<qw%%@#*<w%<&ww;$<tr99qu.$=&<wrrtiq<w:@9%iy6<%@<9@@<@e@*%",
"O@@<%;&@y;<O*O<9<*>&9y;qyq@@@%.:#5O<wq6r<q9@ @iytr;7966w9%OOw;@@",
"77e$+@<$q<%@3*%w9*o<@w9@<&6y<<u>35@<qiqtqw9O$q6yytqw9qq+%q9@9&<;",
"$#*$+70@@9@#:@<<%#%@<w;@%ww&>#p+*=oewrt6%<<< 6iii97$eq9#<<&;%@<O",
"$*$>4$;9@9+$3O++<<<39%%33;yq>>1*2p@qya<6<+@;;w%yt6+;9w@;<4#%@%@;",
"*7#4+>;$7@7%7w9<9<%wy6ye*ww@++.;;2+9wry<6q%O09w%;0w99+&7<.*;+e;&",
"$03$3+-+#<*r9w%66<+66q977<O*wr:qwk@&qwyti<9O$qe;w@;<e;2#7&$;+;&7",
"7+7O;7$*7++@%@%r6%<<r@3o$;%<rqk99.%@9%ryy@$X399ww$%@@@#+O$%q;<0$",
"#2>#$o7*$#$38+&66;<@@<:$>+9%6@.@+.9+7@&;+*+o$@O9%O;7;+#$77%&&oo#",
"343$>7o&$&#* ;%6+<##7$473+@7<@877=o33&o+@;7*76ww9*$ @O&+7<%+*o::",
" 3887*&;e*7o 0@;% >4o+ $##eO+$=++=:3:O<w%#+ @9O +#o**<$*7o7#o3XX",
"XX8 o3*O;#>Xo+$:$4:: >oo>>#+O+uo#5 oO<<9w@>#+e>:o*3o7#$$*$%+2:X4",
"=X:o*3+oO7$3 >>$#47 >##> 4 7>>p3op>+;<wq;%$#o  #>:>:o+7#3Xo334XX",
"upu=.8:k248..:X 48k88XXXX..>>Xl88lX>:3##*2f.3k:48o :33:X.8   =.."
};
